; generated by PrusaSlicer 2.2.0 on 2020-07-04 at 20:58:51 UTC

; 

; external perimeters extrusion width = 0.45mm
; perimeters extrusion width = 0.45mm
; infill extrusion width = 0.45mm
; solid infill extrusion width = 0.45mm
; top infill extrusion width = 0.40mm
; first layer extrusion width = 0.42mm

M73 P0 R18
M73 Q0 S18
M201 X1000 Y1000 Z200 E5000 ; sets maximum accelerations, mm/sec^2
M203 X200 Y200 Z12 E120 ; sets maximum feedrates, mm/sec
M204 P1250 R1250 T1250 ; sets acceleration (P, T) and retract acceleration (R), mm/sec^2
M205 X8.00 Y8.00 Z0.40 E4.50 ; sets the jerk limits, mm/sec
M205 S0 T0 ; sets the minimum extruding and travel feed rate, mm/sec
M107
M862.3 P "MK3S" ; printer model check
M862.1 P0.4 ; nozzle diameter check
M115 U3.9.0 ; tell printer latest fw version
G90 ; use absolute coordinates
M83 ; extruder relative mode
M104 S215 ; set extruder temp
M140 S60 ; set bed temp
M190 S60 ; wait for bed temp
M109 S215 ; wait for extruder temp
G28 W ; home all without mesh bed level
G80 ; mesh bed leveling
G1 Y-3.0 F1000.0 ; go outside print area
G92 E0.0
G1 X60.0 E9.0 F1000.0 ; intro line
M73 Q0 S18
M73 P0 R18
G1 X100.0 E12.5 F1000.0 ; intro line
G92 E0.0
M221 S95
G21 ; set units to millimeters
G90 ; use absolute coordinates
M83 ; use relative distances for extrusion
M900 K0.06 ; Filament gcode LA 1.5
M900 K30 ; Filament gcode LA 1.0
;BEFORE_LAYER_CHANGE
G92 E0.0
;0.1


G1 E-0.80000 F2100.00000
G1 Z0.600 F10800.000
;AFTER_LAYER_CHANGE
;0.1
G1 X108.996 Y107.484
G1 Z0.100
G1 E0.80000 F2100.00000
M204 S1000
G1 F1200.000
G1 X108.554 Y106.304 E0.02089
G1 X108.474 Y105.591 E0.01188
G1 X108.497 Y104.061 E0.02536
G1 X108.659 Y103.292 E0.01302
G1 X108.965 Y102.571 E0.01298
G1 X109.466 Y101.852 E0.01451
G1 X110.116 Y101.255 E0.01463
G1 X110.893 Y100.808 E0.01485
G1 X111.708 Y100.552 E0.01415
G1 X112.482 Y100.473 E0.01288
G1 X137.505 Y100.473 E0.41462
G1 X138.243 Y100.542 E0.01229
G1 X138.947 Y100.742 E0.01214
G1 X139.601 Y101.065 E0.01207
G1 X140.210 Y101.521 E0.01261
G1 X140.717 Y102.078 E0.01249
G1 X141.110 Y102.716 E0.01241
G1 X141.377 Y103.411 E0.01234
G1 X141.511 Y104.140 E0.01228
G1 X141.475 Y106.143 E0.03319
G1 X141.277 Y106.896 E0.01290
G1 X140.945 Y107.585 E0.01268
G1 X140.449 Y108.242 E0.01363
G1 X139.816 Y108.794 E0.01393
G1 X139.082 Y109.203 E0.01393
G1 X138.291 Y109.448 E0.01371
G1 X137.509 Y109.527 E0.01303
G1 X112.078 Y109.505 E0.42138
G1 X111.444 Y109.386 E0.01068
G1 X110.849 Y109.173 E0.01048
G1 X110.295 Y108.870 E0.01046
G1 X109.786 Y108.474 E0.01068
G1 X109.033 Y107.531 E0.01999
G1 X109.348 Y107.285 F10800.000
G1 F1200.000
G1 X108.932 Y106.157 E0.01992
G1 X108.895 Y104.086 E0.03432
G1 X109.045 Y103.392 E0.01175
G1 X109.325 Y102.744 E0.01170
G1 X109.784 Y102.094 E0.01317
G1 X110.379 Y101.556 E0.01329
G1 X111.087 Y101.158 E0.01346
G1 X111.836 Y100.933 E0.01297
G1 X112.482 Y100.872 E0.01074
G1 X137.504 Y100.872 E0.41461
G1 X138.172 Y100.934 E0.01111
G1 X138.809 Y101.116 E0.01098
G1 X139.393 Y101.405 E0.01079
G1 X139.946 Y101.821 E0.01147
G1 X140.406 Y102.328 E0.01135
G1 X140.759 Y102.904 E0.01119
G1 X140.996 Y103.531 E0.01110
G1 X141.115 Y104.194 E0.01117
G1 X141.081 Y106.085 E0.03134
G1 X140.902 Y106.761 E0.01159
G1 X140.604 Y107.380 E0.01138
G1 X140.149 Y107.979 E0.01246
G1 X139.570 Y108.480 E0.01269
G1 X138.910 Y108.843 E0.01248
G1 X138.165 Y109.067 E0.01290
G1 X137.504 Y109.128 E0.01100
G1 X112.137 Y109.110 E0.42031
G1 X111.008 Y108.808 E0.01936
G1 X110.039 Y108.166 E0.01925
G1 X109.385 Y107.332 E0.01757
G1 X109.662 Y107.042 F10800.000
G1 F1200.000
G1 X109.316 Y106.042 E0.01754
G1 X109.291 Y104.133 E0.03163
G1 X109.424 Y103.515 E0.01048
G1 X109.674 Y102.937 E0.01043
G1 X110.089 Y102.351 E0.01189
G1 X110.629 Y101.867 E0.01202
G1 X111.273 Y101.512 E0.01218
G1 X111.951 Y101.317 E0.01169
G1 X137.504 Y101.270 E0.42340
G1 X138.101 Y101.326 E0.00993
G1 X138.674 Y101.491 E0.00988
G1 X139.227 Y101.771 E0.01027
G1 X139.694 Y102.130 E0.00976
G1 X140.097 Y102.580 E0.01001
G1 X140.408 Y103.095 E0.00997
G1 X140.617 Y103.654 E0.00989
G1 X140.720 Y104.246 E0.00996
G1 X140.692 Y105.990 E0.02890
G1 X140.540 Y106.591 E0.01026
G1 X140.266 Y107.168 E0.01059
G1 X139.856 Y107.709 E0.01125
G1 X139.329 Y108.162 E0.01150
G1 X138.717 Y108.492 E0.01153
G1 X138.048 Y108.683 E0.01153
G1 X112.197 Y108.715 E0.42833
G1 X111.179 Y108.447 E0.01746
G1 X110.302 Y107.866 E0.01743
G1 X109.699 Y107.089 E0.01629
G1 X110.015 Y106.848 F10800.000
G1 F1200.000
G1 X109.701 Y105.922 E0.01620
G1 X109.687 Y104.180 E0.02888
G1 X109.804 Y103.637 E0.00921
G1 X110.023 Y103.129 E0.00916
G1 X110.388 Y102.615 E0.01045
G1 X110.870 Y102.185 E0.01070
G1 X111.444 Y101.873 E0.01083
G1 X112.052 Y101.705 E0.01046
G1 X137.504 Y101.669 E0.42172
G1 X138.537 Y101.866 E0.01743
G1 X139.025 Y102.115 E0.00908
G1 X139.441 Y102.439 E0.00873
G1 X139.791 Y102.836 E0.00877
G1 X140.065 Y103.301 E0.00894
G1 X140.242 Y103.794 E0.00868
G1 X140.326 Y104.335 E0.00907
G1 X140.299 Y105.924 E0.02634
G1 X140.165 Y106.455 E0.00906
G1 X139.924 Y106.964 E0.00934
G1 X139.554 Y107.448 E0.01009
G1 X139.072 Y107.855 E0.01045
G1 X138.534 Y108.136 E0.01006
G1 X137.934 Y108.298 E0.01030
G1 X112.255 Y108.320 E0.42550
G1 X111.344 Y108.085 E0.01558
G1 X110.561 Y107.563 E0.01558
G1 X110.051 Y106.895 E0.01392
G1 F8640.000
G1 X109.701 Y105.922 E-0.23886
G1 X109.687 Y104.180 E-0.40239
G1 X109.795 Y103.677 E-0.11875
G1 E-0.04000 F2100.00000
G1 Z0.700 F10800.000
G1 X110.509 Y109.867
G1 Z0.100
G1 E0.80000 F2100.00000
G1 F1200.000
G1 X109.178 Y108.975 E0.02654
G1 X108.740 Y108.478 E0.01098
G1 X108.273 Y107.789 E0.01379
G1 X107.758 Y106.199 E0.02770
G1 X107.738 Y103.930 E0.03759
G1 X107.982 Y102.875 E0.01795
G1 X108.443 Y101.922 E0.01753
G1 X109.903 Y100.455 E0.03429
G1 X110.817 Y100.004 E0.01689
G1 X111.822 Y99.749 E0.01719
G1 X138.107 Y99.740 E0.43551
G1 X139.111 Y99.977 E0.01710
G1 X140.062 Y100.436 E0.01750
G1 X141.393 Y101.686 E0.03025
G1 X141.969 Y102.747 E0.02000
G1 X142.257 Y103.903 E0.01974
G1 X142.302 Y105.690 E0.02963
G1 X141.925 Y107.375 E0.02862
G1 X141.585 Y108.006 E0.01187
G1 X140.984 Y108.805 E0.01657
G1 X140.388 Y109.330 E0.01315
G1 X139.671 Y109.788 E0.01411
G1 X138.199 Y110.242 E0.02551
G1 X112.085 Y110.279 E0.43270
G1 X110.567 Y109.882 E0.02600
G1 X110.700 Y109.516 F10800.000
G1 F1200.000
G1 X109.459 Y108.691 E0.02469
G1 X109.063 Y108.243 E0.00991
G1 X108.619 Y107.590 E0.01309
G1 X108.147 Y106.107 E0.02578
G1 X108.131 Y103.996 E0.03499
G1 X108.351 Y103.027 E0.01645
G1 X108.787 Y102.126 E0.01660
G1 X110.109 Y100.798 E0.03103
G1 X110.974 Y100.371 E0.01599
G1 X111.895 Y100.142 E0.01573
G1 X138.037 Y100.133 E0.43317
G1 X138.997 Y100.360 E0.01634
G1 X139.860 Y100.781 E0.01591
G1 X141.059 Y101.906 E0.02724
G1 X141.589 Y102.869 E0.01820
G1 X141.865 Y103.977 E0.01893
G1 X141.903 Y105.675 E0.02813
G1 X141.561 Y107.212 E0.02609
G1 X141.257 Y107.779 E0.01066
G1 X140.678 Y108.549 E0.01596
G1 X140.138 Y109.019 E0.01186
G1 X139.480 Y109.437 E0.01291
G1 X138.112 Y109.852 E0.02369
G1 X112.158 Y109.886 E0.43004
G1 X110.758 Y109.531 E0.02393
G1 F8640.000
G1 X109.459 Y108.691 E-0.35719
G1 X109.063 Y108.243 E-0.13813
G1 X108.619 Y107.590 E-0.18243
G1 X108.511 Y107.250 E-0.08224
G1 E-0.04000 F2100.00000
G1 Z0.700 F10800.000
G1 X111.572 Y107.721
G1 Z0.100
G1 E0.80000 F2100.00000
G1 F1200.000
G1 X110.848 Y107.256 E0.01427
G1 X110.671 Y107.065 E0.00432
G1 X110.355 Y106.600 E0.00931
G1 X110.098 Y105.681 E0.01581
G1 X110.101 Y104.311 E0.02270
G1 X110.225 Y103.708 E0.01020
G1 X110.501 Y103.154 E0.01025
G1 X111.149 Y102.505 E0.01519
G1 X111.680 Y102.235 E0.00988
G1 X112.242 Y102.107 E0.00954
G1 X137.711 Y102.102 E0.42201
G1 X138.311 Y102.232 E0.01018
G1 X138.844 Y102.501 E0.00990
G1 X139.397 Y103.016 E0.01251
G1 X139.740 Y103.614 E0.01143
G1 X139.900 Y104.324 E0.01205
G1 X139.910 Y105.587 E0.02093
G1 X139.730 Y106.416 E0.01405
G1 X139.610 Y106.655 E0.00443
G1 X139.206 Y107.204 E0.01130
G1 X139.009 Y107.376 E0.00432
G1 X138.537 Y107.675 E0.00927
G1 X137.704 Y107.898 E0.01429
G1 X112.408 Y107.910 E0.41914
G1 X111.631 Y107.735 E0.01319
G1 X111.120 Y106.965 F10800.000
G1 F1200.000
G1 X110.992 Y106.827 E0.00311
G1 X110.705 Y106.404 E0.00847
G1 X110.490 Y105.605 E0.01372
G1 X110.496 Y104.372 E0.02043
G1 X110.610 Y103.815 E0.00941
G1 X110.841 Y103.365 E0.00839
G1 X111.361 Y102.844 E0.01219
G1 X111.794 Y102.618 E0.00811
G1 X112.308 Y102.501 E0.00873
G1 X137.652 Y102.496 E0.41992
G1 X138.156 Y102.600 E0.00853
G1 X138.640 Y102.844 E0.00898
G1 X139.069 Y103.244 E0.00972
G1 X139.358 Y103.734 E0.00942
G1 X139.506 Y104.390 E0.01115
G1 X139.511 Y105.567 E0.01950
G1 X139.361 Y106.263 E0.01181
G1 X139.277 Y106.436 E0.00319
G1 X138.925 Y106.922 E0.00993
G1 X138.782 Y107.048 E0.00317
G1 X138.351 Y107.321 E0.00845
G1 X137.631 Y107.505 E0.01232
G1 X112.428 Y107.511 E0.41759
G1 X111.754 Y107.365 E0.01142
G1 X111.171 Y106.997 E0.01143
G1 X111.391 Y106.672 F10800.000
G1 F1200.000
G1 X111.311 Y106.588 E0.00191
G1 X111.054 Y106.209 E0.00760
G1 X110.888 Y105.580 E0.01078
G1 X110.891 Y104.427 E0.01911
G1 X110.978 Y103.971 E0.00769
G1 X111.181 Y103.574 E0.00738
G1 X111.572 Y103.183 E0.00916
G1 X111.954 Y102.984 E0.00713
G1 X112.370 Y102.895 E0.00706
G1 X137.597 Y102.891 E0.41799
G1 X138.002 Y102.969 E0.00685
G1 X138.435 Y103.187 E0.00803
G1 X138.745 Y103.476 E0.00703
G1 X138.977 Y103.855 E0.00736
G1 X139.113 Y104.456 E0.01020
G1 X139.113 Y105.545 E0.01806
G1 X138.991 Y106.115 E0.00966
G1 X138.941 Y106.221 E0.00193
G1 X138.640 Y106.642 E0.00858
G1 X138.553 Y106.721 E0.00195
G1 X138.166 Y106.967 E0.00758
G1 X137.562 Y107.113 E0.01031
G1 X112.451 Y107.113 E0.41607
G1 X111.877 Y106.984 E0.00974
G1 X111.442 Y106.704 E0.00858
G1 X111.654 Y106.372 F10800.000
G1 F1200.000
G1 X111.403 Y106.015 E0.00724
G1 X111.287 Y105.555 E0.00785
G1 X111.286 Y104.483 E0.01778
G1 X111.363 Y104.077 E0.00684
G1 X111.518 Y103.789 E0.00541
G1 X111.784 Y103.522 E0.00624
G1 X112.111 Y103.351 E0.00612
G1 X112.426 Y103.289 E0.00532
G1 X137.576 Y103.290 E0.41672
G1 X137.894 Y103.353 E0.00537
G1 X138.222 Y103.525 E0.00613
G1 X138.447 Y103.742 E0.00518
G1 X138.617 Y104.029 E0.00551
G1 X138.714 Y104.476 E0.00759
G1 X138.714 Y105.524 E0.01737
G1 X138.602 Y106.010 E0.00826
G1 X138.320 Y106.397 E0.00792
G1 X137.982 Y106.612 E0.00664
G1 X137.540 Y106.714 E0.00752
G1 X112.470 Y106.714 E0.41539
G1 X112.058 Y106.628 E0.00697
G1 X111.705 Y106.404 E0.00693
G1 X111.926 Y106.075 F10800.000
G1 F1200.000
G1 X111.754 Y105.822 E0.00507
G1 X111.685 Y105.533 E0.00492
G1 X111.684 Y104.498 E0.01715
G1 X111.730 Y104.236 E0.00441
G1 X111.853 Y104.007 E0.00430
G1 X112.034 Y103.833 E0.00416
G1 X112.258 Y103.723 E0.00414
G1 X112.475 Y103.685 E0.00366
G1 X137.554 Y103.688 E0.41554
G1 X137.779 Y103.736 E0.00382
G1 X138.001 Y103.858 E0.00420
G1 X138.143 Y104.001 E0.00334
G1 X138.254 Y104.196 E0.00371
G1 X138.316 Y104.495 E0.00506
G1 X138.316 Y105.501 E0.01667
G1 X138.242 Y105.829 E0.00557
G1 X138.057 Y106.092 E0.00533
G1 X137.800 Y106.255 E0.00505
G1 X137.520 Y106.315 E0.00474
G1 X112.492 Y106.315 E0.41469
G1 X112.183 Y106.248 E0.00524
G1 X111.976 Y106.108 E0.00414
G1 X112.129 Y105.680 F10800.000
G1 F1200.000
G1 X112.084 Y105.506 E0.00298
G1 X112.083 Y104.510 E0.01650
G1 X112.103 Y104.381 E0.00218
G1 X112.163 Y104.259 E0.00225
G1 X112.253 Y104.167 E0.00212
G1 X112.365 Y104.108 E0.00210
G1 X112.495 Y104.084 E0.00219
G1 X137.504 Y104.084 E0.41438
G1 X137.631 Y104.106 E0.00214
G1 X137.743 Y104.164 E0.00210
G1 X137.838 Y104.259 E0.00222
G1 X137.887 Y104.351 E0.00173
G1 X137.917 Y104.512 E0.00272
G1 X137.917 Y105.485 E0.01612
G1 X137.884 Y105.651 E0.00280
G1 X137.793 Y105.791 E0.00278
G1 X137.669 Y105.877 E0.00251
G1 X137.496 Y105.917 E0.00293
G1 X112.509 Y105.917 E0.41402
G1 X112.356 Y105.887 E0.00258
G1 X112.219 Y105.803 E0.00267
G1 X112.164 Y105.728 E0.00152
G1 X112.692 Y105.308 F10800.000
G1 F1200.000
G1 X112.692 Y104.692 E0.01020
G1 X137.308 Y104.693 E0.40786
G1 X137.308 Y105.308 E0.01019
G1 X112.752 Y105.308 E0.40687
G1 F8640.000
G1 X112.692 Y104.692 E-0.14279
G1 X115.365 Y104.692 E-0.61721
G1 E-0.04000 F2100.00000
G1 Z0.700 F10800.000
G1 X136.757 Y105.188
G1 Z0.100
G1 E0.80000 F2100.00000
G1 F1200.000
G1 X136.561 Y104.992 E0.00461
G1 X135.449 Y105.009 E0.01844
G1 X135.432 Y104.992 E0.00041
G1 X134.868 Y104.992 E0.00936
G1 X134.885 Y105.009 E0.00041
G1 X134.321 Y105.009 E0.00936
G1 X134.303 Y104.992 E0.00041
G1 X133.739 Y104.992 E0.00936
G1 X133.756 Y105.009 E0.00041
G1 X133.192 Y105.009 E0.00936
G1 X133.175 Y104.992 E0.00041
G1 X132.610 Y104.992 E0.00936
G1 X132.627 Y105.009 E0.00041
G1 X132.063 Y105.009 E0.00936
G1 X132.046 Y104.992 E0.00041
G1 X131.481 Y104.992 E0.00936
G1 X131.499 Y105.009 E0.00041
G1 X130.934 Y105.009 E0.00936
G1 X130.917 Y104.992 E0.00041
G1 X130.353 Y104.992 E0.00936
G1 X130.370 Y105.009 E0.00041
G1 X129.806 Y105.009 E0.00936
G1 X129.788 Y104.992 E0.00041
G1 X129.224 Y104.991 E0.00936
G1 X129.241 Y105.009 E0.00041
G1 X128.677 Y105.009 E0.00936
G1 X128.660 Y104.991 E0.00041
G1 X128.095 Y104.991 E0.00936
G1 X128.113 Y105.009 E0.00041
G1 X127.548 Y105.009 E0.00936
G1 X127.531 Y104.991 E0.00041
G1 X126.966 Y104.991 E0.00936
G1 X126.984 Y105.009 E0.00041
G1 X126.419 Y105.009 E0.00936
G1 X126.402 Y104.991 E0.00041
G1 X125.838 Y104.991 E0.00936
G1 X125.855 Y105.009 E0.00041
G1 X125.291 Y105.009 E0.00936
G1 X125.273 Y104.991 E0.00041
G1 X124.709 Y104.991 E0.00936
G1 X124.726 Y105.009 E0.00041
G1 X124.162 Y105.009 E0.00936
G1 X124.145 Y104.991 E0.00041
G1 X123.580 Y104.991 E0.00936
G1 X123.598 Y105.009 E0.00041
G1 X123.033 Y105.009 E0.00936
G1 X123.016 Y104.991 E0.00041
G1 X122.451 Y104.991 E0.00936
G1 X122.469 Y105.009 E0.00041
G1 X121.905 Y105.009 E0.00936
G1 X121.887 Y104.991 E0.00041
G1 X121.323 Y104.991 E0.00936
G1 X121.340 Y105.009 E0.00041
G1 X120.776 Y105.009 E0.00936
G1 X120.758 Y104.991 E0.00041
G1 X120.194 Y104.991 E0.00936
G1 X120.211 Y105.009 E0.00041
G1 X119.647 Y105.009 E0.00936
G1 X119.630 Y104.991 E0.00041
G1 X119.065 Y104.991 E0.00936
G1 X119.083 Y105.009 E0.00041
G1 X118.518 Y105.009 E0.00936
G1 X118.501 Y104.991 E0.00041
G1 X117.936 Y104.991 E0.00936
G1 X117.954 Y105.009 E0.00041
G1 X117.390 Y105.009 E0.00936
G1 X117.372 Y104.991 E0.00041
G1 X116.808 Y104.991 E0.00936
G1 X116.825 Y105.009 E0.00041
G1 X116.261 Y105.009 E0.00936
G1 X116.243 Y104.991 E0.00041
G1 X115.679 Y104.991 E0.00936
G1 X115.697 Y105.009 E0.00041
G1 X115.132 Y105.009 E0.00936
G1 X115.115 Y104.991 E0.00041
G1 X114.550 Y104.991 E0.00936
G1 X114.568 Y105.009 E0.00041
G1 X114.003 Y105.009 E0.00936
G1 X113.986 Y104.991 E0.00041
G1 X113.421 Y104.991 E0.00936
G1 X113.618 Y105.188 E0.00462
M106 S255
;BEFORE_LAYER_CHANGE
G92 E0.0
;0.2


G1 F8640.000
G1 X113.421 Y104.991 E-0.06433
G1 X113.986 Y104.991 E-0.13032
G1 X114.003 Y105.009 E-0.00577
G1 X114.568 Y105.009 E-0.13031
G1 X114.550 Y104.991 E-0.00576
G1 X115.115 Y104.991 E-0.13032
G1 X115.132 Y105.009 E-0.00576
G1 X115.697 Y105.009 E-0.13031
G1 X115.679 Y104.991 E-0.00576
G1 X116.243 Y104.991 E-0.13032
G1 X116.261 Y105.009 E-0.00576
G1 X116.327 Y105.009 E-0.01529
G1 E-0.04000 F2100.00000
G1 Z0.700 F10800.000
;AFTER_LAYER_CHANGE
;0.2
G1 X108.996 Y107.484
G1 Z0.200
G1 E0.80000 F2100.00000
G1 F1053
G1 X108.554 Y106.304 E0.02089
G1 X108.474 Y105.591 E0.01188
G1 X108.497 Y104.061 E0.02536
G1 X108.659 Y103.292 E0.01302
G1 X108.965 Y102.571 E0.01298
G1 X109.466 Y101.852 E0.01451
G1 X110.116 Y101.255 E0.01463
G1 X110.893 Y100.808 E0.01485
G1 X111.708 Y100.552 E0.01415
G1 X112.482 Y100.473 E0.01288
G1 X137.505 Y100.473 E0.41462
G1 X138.243 Y100.542 E0.01229
G1 X138.947 Y100.742 E0.01214
G1 X139.601 Y101.065 E0.01207
G1 X140.210 Y101.521 E0.01261
G1 X140.717 Y102.078 E0.01249
G1 X141.110 Y102.716 E0.01241
G1 X141.377 Y103.411 E0.01234
G1 X141.511 Y104.140 E0.01228
G1 X141.475 Y106.143 E0.03319
G1 X141.277 Y106.896 E0.01290
G1 X140.945 Y107.585 E0.01268
G1 X140.449 Y108.242 E0.01363
G1 X139.816 Y108.794 E0.01393
G1 X139.082 Y109.203 E0.01393
G1 X138.291 Y109.448 E0.01371
G1 X137.509 Y109.527 E0.01303
G1 X112.078 Y109.505 E0.42138
G1 X111.444 Y109.386 E0.01068
G1 X110.849 Y109.173 E0.01048
G1 X110.295 Y108.870 E0.01046
