; generated by PrusaSlicer 2.2.0 on 2020-07-04 at 02:45:31 UTC

; 

; external perimeters extrusion width = 0.45mm
; perimeters extrusion width = 0.45mm
; infill extrusion width = 0.45mm
; solid infill extrusion width = 0.45mm
; top infill extrusion width = 0.40mm
; first layer extrusion width = 0.42mm

M73 P0 R208
M73 Q0 S212
M201 X1000 Y1000 Z200 E5000 ; sets maximum accelerations, mm/sec^2
M203 X200 Y200 Z12 E120 ; sets maximum feedrates, mm/sec
M204 P1250 R1250 T1250 ; sets acceleration (P, T) and retract acceleration (R), mm/sec^2
M205 X8.00 Y8.00 Z0.40 E4.50 ; sets the jerk limits, mm/sec
M205 S0 T0 ; sets the minimum extruding and travel feed rate, mm/sec
M107
M862.3 P "MK3S" ; printer model check
M862.1 P0.4 ; nozzle diameter check
M115 U3.9.0 ; tell printer latest fw version
G90 ; use absolute coordinates
M83 ; extruder relative mode
M104 S215 ; set extruder temp
M140 S60 ; set bed temp
M190 S60 ; wait for bed temp
M109 S215 ; wait for extruder temp
G28 W ; home all without mesh bed level
G80 ; mesh bed leveling
G1 Y-3.0 F1000.0 ; go outside print area
G92 E0.0
G1 X60.0 E9.0 F1000.0 ; intro line
M73 Q0 S212
M73 P0 R208
G1 X100.0 E12.5 F1000.0 ; intro line
G92 E0.0
M221 S95
G21 ; set units to millimeters
G90 ; use absolute coordinates
M83 ; use relative distances for extrusion
M900 K0.06 ; Filament gcode LA 1.5
M900 K30 ; Filament gcode LA 1.0
;BEFORE_LAYER_CHANGE
G92 E0.0
;0.1


G1 E-0.80000 F2100.00000
G1 Z0.600 F10800.000
;AFTER_LAYER_CHANGE
;0.1
G1 X12.513 Y117.278
G1 Z0.100
G1 E0.80000 F2100.00000
M204 S1000
G1 F1200.000
G1 X12.247 Y116.468 E0.01413
G1 X12.294 Y114.640 E0.03030
G1 X12.629 Y112.571 E0.03473
G1 X13.014 Y111.131 E0.02470
G1 X13.720 Y109.222 E0.03373
G1 X14.652 Y107.307 E0.03528
G1 X16.168 Y104.865 E0.04762
G1 X17.276 Y103.428 E0.03008
G1 X18.653 Y101.854 E0.03464
G1 X20.761 Y99.824 E0.04850
G1 X22.259 Y98.611 E0.03193
G1 X24.665 Y96.960 E0.04835
G1 X26.288 Y96.034 E0.03097
G1 X27.927 Y95.253 E0.03009
G1 X29.829 Y94.504 E0.03386
G1 X31.952 Y93.885 E0.03664
G1 X33.916 Y93.519 E0.03311
G1 X36.307 Y93.356 E0.03972
G1 X177.916 Y93.344 E2.34637
G1 X214.402 Y93.370 E0.60454
G1 X215.956 Y93.501 E0.02585
G1 X217.861 Y93.841 E0.03205
G1 X219.088 Y94.161 E0.02102
G1 X221.037 Y94.817 E0.03407
G1 X223.746 Y96.052 E0.04933
G1 X225.337 Y96.961 E0.03037
G1 X227.764 Y98.629 E0.04880
G1 X229.237 Y99.822 E0.03140
G1 X231.319 Y101.825 E0.04788
G1 X232.719 Y103.422 E0.03519
G1 X233.762 Y104.766 E0.02819
G1 X234.810 Y106.359 E0.03158
G1 X235.660 Y107.896 E0.02910
G1 X236.491 Y109.733 E0.03341
G1 X236.994 Y111.158 E0.02504
G1 X237.371 Y112.570 E0.02422
G1 X237.705 Y114.622 E0.03446
G1 X237.774 Y116.237 E0.02678
G1 X237.607 Y117.023 E0.01331
G1 X237.250 Y117.636 E0.01175
G1 X236.730 Y118.118 E0.01175
G1 X236.092 Y118.427 E0.01175
G1 X235.392 Y118.536 E0.01175
G1 X14.615 Y118.536 E3.65813
G1 X13.777 Y118.382 E0.01413
G1 X13.045 Y117.944 E0.01413
G1 X12.550 Y117.325 E0.01313
G1 F8640.000
G1 X12.247 Y116.468 E-0.20988
G1 X12.294 Y114.640 E-0.42229
G1 X12.382 Y114.093 E-0.12783
G1 E-0.04000 F2100.00000
G1 Z0.700 F10800.000
G1 X19.392 Y118.337
G1 Z0.100
G1 E0.80000 F2100.00000
G1 F1200.000
G1 X19.541 Y118.086 E0.00483
G1 X19.831 Y117.256 E0.01458
G1 X19.998 Y115.246 E0.03342
G1 X20.112 Y114.518 E0.01221
G1 X20.222 Y114.017 E0.00849
G1 X20.471 Y113.179 E0.01449
G1 X20.686 Y112.585 E0.01046
G1 X21.178 Y111.493 E0.01984
G1 X21.568 Y110.761 E0.01374
G1 X21.854 Y110.282 E0.00925
G1 X22.419 Y109.421 E0.01706
G1 X22.953 Y108.695 E0.01492
G1 X23.482 Y108.040 E0.01396
G1 X24.024 Y107.424 E0.01359
G1 X24.680 Y106.737 E0.01574
G1 X25.338 Y106.108 E0.01509
G1 X26.024 Y105.499 E0.01520
G1 X26.888 Y104.805 E0.01837
G1 X27.396 Y104.426 E0.01050
G1 X28.106 Y103.935 E0.01430
G1 X28.938 Y103.411 E0.01630
G1 X29.687 Y102.985 E0.01427
G1 X30.585 Y102.529 E0.01668
G1 X31.082 Y102.303 E0.00905
G1 X32.115 Y101.887 E0.01845
G1 X32.772 Y101.664 E0.01150
G1 X33.481 Y101.461 E0.01222
G1 X34.016 Y101.337 E0.00910
G1 X34.684 Y101.211 E0.01126
G1 X35.614 Y101.106 E0.01551
G1 X36.113 Y101.080 E0.00827
G1 X213.887 Y101.080 E2.94561
G1 X214.386 Y101.106 E0.00827
G1 X215.316 Y101.211 E0.01551
G1 X215.984 Y101.337 E0.01126
G1 X216.519 Y101.461 E0.00910
G1 X217.228 Y101.664 E0.01222
G1 X217.885 Y101.887 E0.01150
G1 X218.918 Y102.303 E0.01845
G1 X219.415 Y102.529 E0.00905
G1 X220.313 Y102.985 E0.01668
G1 X221.062 Y103.411 E0.01427
G1 X221.894 Y103.935 E0.01630
G1 X222.604 Y104.426 E0.01430
G1 X223.112 Y104.805 E0.01050
G1 X223.976 Y105.499 E0.01837
G1 X224.662 Y106.108 E0.01520
G1 X225.320 Y106.737 E0.01509
G1 X225.976 Y107.424 E0.01574
G1 X226.518 Y108.040 E0.01359
G1 X227.047 Y108.695 E0.01396
G1 X227.581 Y109.421 E0.01492
G1 X228.146 Y110.282 E0.01706
G1 X228.432 Y110.761 E0.00925
G1 X228.822 Y111.493 E0.01374
G1 X229.314 Y112.585 E0.01984
G1 X229.529 Y113.179 E0.01046
G1 X229.778 Y114.017 E0.01449
G1 X229.888 Y114.518 E0.00849
G1 X230.002 Y115.246 E0.01221
G1 X230.169 Y117.256 E0.03342
G1 X230.463 Y118.096 E0.01476
G1 X230.610 Y118.337 E0.00467
G1 X230.853 Y118.735 F10800.000
G1 F1200.000
G1 X230.965 Y118.918 E0.00354
G1 X232.044 Y119.945 E0.02469
G1 X233.091 Y120.482 E0.01949
G1 X233.941 Y120.692 E0.01451
G1 X236.345 Y120.651 E0.03985
G1 X237.398 Y120.290 E0.01843
G1 X238.322 Y119.674 E0.01841
G1 X239.104 Y118.849 E0.01883
G1 X239.657 Y117.865 E0.01870
G1 X239.957 Y116.571 E0.02202
G1 X239.942 Y115.383 E0.01968
G1 X239.877 Y114.439 E0.01568
G1 X239.771 Y113.558 E0.01470
G1 X239.626 Y112.698 E0.01445
G1 X239.435 Y111.812 E0.01503
G1 X239.203 Y110.931 E0.01509
G1 X238.901 Y109.972 E0.01666
G1 X238.567 Y109.054 E0.01619
G1 X238.095 Y107.936 E0.02011
G1 X237.670 Y107.041 E0.01641
G1 X237.132 Y106.027 E0.01903
G1 X236.506 Y104.967 E0.02039
G1 X235.707 Y103.757 E0.02403
G1 X234.849 Y102.599 E0.02388
G1 X234.156 Y101.738 E0.01831
G1 X233.320 Y100.780 E0.02107
G1 X232.244 Y99.658 E0.02575
G1 X231.371 Y98.822 E0.02003
G1 X230.432 Y97.988 E0.02082
G1 X229.314 Y97.079 E0.02387
G1 X228.270 Y96.304 E0.02155
G1 X227.192 Y95.568 E0.02163
G1 X226.184 Y94.934 E0.01973
G1 X224.908 Y94.210 E0.02431
G1 X223.816 Y93.657 E0.02027
G1 X222.705 Y93.150 E0.02023
G1 X221.457 Y92.649 E0.02230
G1 X220.111 Y92.191 E0.02355
G1 X219.004 Y91.875 E0.01907
G1 X217.879 Y91.615 E0.01913
G1 X216.882 Y91.431 E0.01679
G1 X215.931 Y91.302 E0.01590
G1 X215.028 Y91.221 E0.01503
G1 X214.198 Y91.181 E0.01376
G1 X35.986 Y91.178 E2.95287
G1 X34.969 Y91.221 E0.01687
G1 X33.968 Y91.314 E0.01665
G1 X32.964 Y91.456 E0.01680
G1 X31.919 Y91.657 E0.01763
G1 X30.880 Y91.906 E0.01771
G1 X29.840 Y92.207 E0.01793
G1 X28.546 Y92.647 E0.02265
G1 X27.357 Y93.124 E0.02123
G1 X26.193 Y93.652 E0.02118
G1 X25.070 Y94.222 E0.02087
G1 X23.871 Y94.901 E0.02283
G1 X22.828 Y95.554 E0.02038
G1 X21.750 Y96.289 E0.02162
G1 X20.686 Y97.079 E0.02195
G1 X19.568 Y97.988 E0.02388
G1 X18.623 Y98.828 E0.02096
G1 X17.707 Y99.707 E0.02103
G1 X16.694 Y100.766 E0.02427
G1 X15.845 Y101.737 E0.02138
G1 X15.042 Y102.737 E0.02125
G1 X14.291 Y103.759 E0.02102
G1 X13.532 Y104.906 E0.02277
G1 X12.874 Y106.017 E0.02141
G1 X12.358 Y106.985 E0.01816
G1 X11.908 Y107.928 E0.01732
G1 X11.478 Y108.939 E0.01820
G1 X11.118 Y109.915 E0.01722
G1 X10.806 Y110.902 E0.01716
G1 X10.561 Y111.828 E0.01587
G1 X10.360 Y112.775 E0.01604
G1 X10.231 Y113.543 E0.01291
G1 X10.135 Y114.322 E0.01300
G1 X10.058 Y115.386 E0.01768
G1 X10.087 Y116.961 E0.02610
G1 X10.401 Y118.002 E0.01802
G1 X10.929 Y118.889 E0.01711
G1 X11.768 Y119.746 E0.01987
G1 X12.776 Y120.369 E0.01964
G1 X14.099 Y120.721 E0.02268
G1 X15.783 Y120.721 E0.02790
G1 X16.877 Y120.496 E0.01850
G1 X17.918 Y119.972 E0.01932
G1 X19.083 Y118.858 E0.02670
G1 X19.156 Y118.735 E0.00237
G1 X18.936 Y118.337 F10800.000
G1 F1200.000
G1 X19.172 Y117.934 E0.00774
G1 X19.436 Y117.196 E0.01298
G1 X19.602 Y115.199 E0.03321
G1 X19.720 Y114.444 E0.01266
G1 X19.836 Y113.917 E0.00894
G1 X20.092 Y113.054 E0.01492
G1 X20.316 Y112.435 E0.01091
G1 X20.820 Y111.318 E0.02031
G1 X21.221 Y110.565 E0.01412
G1 X21.516 Y110.070 E0.00955
G1 X22.091 Y109.193 E0.01738
G1 X22.637 Y108.452 E0.01525
G1 X23.177 Y107.783 E0.01424
G1 X23.730 Y107.155 E0.01387
G1 X24.398 Y106.456 E0.01602
G1 X25.068 Y105.815 E0.01536
G1 X25.767 Y105.195 E0.01548
G1 X26.644 Y104.490 E0.01864
G1 X27.164 Y104.102 E0.01074
G1 X27.887 Y103.603 E0.01456
G1 X28.733 Y103.069 E0.01658
G1 X29.498 Y102.634 E0.01458
G1 X30.412 Y102.169 E0.01699
G1 X30.925 Y101.937 E0.00934
G1 X31.976 Y101.513 E0.01878
G1 X32.653 Y101.283 E0.01185
G1 X33.381 Y101.075 E0.01254
G1 X33.934 Y100.947 E0.00941
G1 X34.625 Y100.817 E0.01165
G1 X35.581 Y100.709 E0.01595
G1 X36.102 Y100.681 E0.00864
G1 X213.898 Y100.681 E2.94596
M73 Q0 S210
M73 P0 R206
G1 X214.419 Y100.709 E0.00864
G1 X215.375 Y100.817 E0.01595
G1 X216.066 Y100.947 E0.01165
G1 X216.619 Y101.075 E0.00941
G1 X217.347 Y101.283 E0.01254
G1 X218.024 Y101.513 E0.01185
G1 X219.075 Y101.937 E0.01878
G1 X219.588 Y102.169 E0.00934
G1 X220.502 Y102.634 E0.01699
G1 X221.267 Y103.069 E0.01458
G1 X222.113 Y103.603 E0.01658
G1 X222.836 Y104.102 E0.01456
G1 X223.356 Y104.490 E0.01074
G1 X224.233 Y105.195 E0.01864
G1 X224.932 Y105.815 E0.01548
G1 X225.602 Y106.456 E0.01536
G1 X226.270 Y107.155 E0.01602
G1 X226.823 Y107.783 E0.01387
G1 X227.363 Y108.452 E0.01424
G1 X227.909 Y109.193 E0.01525
G1 X228.484 Y110.070 E0.01738
G1 X228.779 Y110.565 E0.00955
G1 X229.180 Y111.318 E0.01412
G1 X229.684 Y112.435 E0.02031
G1 X229.908 Y113.054 E0.01091
G1 X230.164 Y113.917 E0.01492
G1 X230.280 Y114.444 E0.00894
G1 X230.398 Y115.199 E0.01266
G1 X230.564 Y117.196 E0.03321
G1 X230.831 Y117.943 E0.01314
G1 X231.070 Y118.337 E0.00764
G1 X231.350 Y118.735 F10800.000
G1 F1200.000
G1 X232.252 Y119.604 E0.02076
G1 X233.251 Y120.116 E0.01860
G1 X234.009 Y120.299 E0.01292
G1 X236.248 Y120.264 E0.03710
G1 X237.200 Y119.943 E0.01665
G1 X238.050 Y119.382 E0.01687
G1 X238.769 Y118.631 E0.01722
G1 X239.295 Y117.696 E0.01779
G1 X239.563 Y116.507 E0.02018
G1 X239.544 Y115.406 E0.01825
G1 X239.480 Y114.472 E0.01551
G1 X239.377 Y113.620 E0.01422
G1 X239.235 Y112.778 E0.01415
G1 X239.046 Y111.900 E0.01488
G1 X238.819 Y111.037 E0.01478
G1 X238.522 Y110.096 E0.01635
G1 X238.198 Y109.204 E0.01573
G1 X237.730 Y108.095 E0.01995
G1 X237.312 Y107.216 E0.01612
G1 X236.786 Y106.226 E0.01858
G1 X236.165 Y105.174 E0.02023
G1 X235.378 Y103.981 E0.02369
G1 X234.536 Y102.846 E0.02341
G1 X233.853 Y101.997 E0.01805
G1 X233.022 Y101.046 E0.02093
G1 X231.965 Y99.943 E0.02531
G1 X231.104 Y99.118 E0.01977
G1 X230.178 Y98.294 E0.02053
G1 X229.066 Y97.391 E0.02373
G1 X228.036 Y96.626 E0.02127
G1 X226.971 Y95.899 E0.02137
G1 X225.976 Y95.274 E0.01947
G1 X224.723 Y94.563 E0.02386
G1 X223.640 Y94.014 E0.02012
G1 X222.544 Y93.515 E0.01995
G1 X221.323 Y93.024 E0.02181
G1 X219.987 Y92.570 E0.02338
G1 X218.899 Y92.260 E0.01874
G1 X217.794 Y92.004 E0.01881
G1 X216.815 Y91.824 E0.01649
G1 X215.882 Y91.698 E0.01560
G1 X214.996 Y91.618 E0.01474
G1 X214.184 Y91.580 E0.01348
G1 X180.123 Y91.577 E0.56437
G1 X35.990 Y91.577 E2.38820
G1 X35.000 Y91.618 E0.01641
G1 X34.010 Y91.710 E0.01649
G1 X33.025 Y91.850 E0.01647
G1 X31.999 Y92.047 E0.01731
G1 X30.986 Y92.290 E0.01726
G1 X29.964 Y92.585 E0.01763
G1 X28.690 Y93.019 E0.02231
G1 X27.518 Y93.489 E0.02092
G1 X26.369 Y94.010 E0.02089
G1 X25.262 Y94.571 E0.02057
G1 X24.071 Y95.246 E0.02268
G1 X23.049 Y95.886 E0.01997
G1 X21.984 Y96.612 E0.02136
G1 X20.934 Y97.391 E0.02167
G1 X19.822 Y98.294 E0.02373
G1 X18.890 Y99.123 E0.02067
G1 X17.986 Y99.992 E0.02078
G1 X16.991 Y101.031 E0.02384
G1 X16.153 Y101.990 E0.02110
G1 X15.361 Y102.977 E0.02097
G1 X14.621 Y103.983 E0.02070
G1 X13.868 Y105.121 E0.02261
G1 X13.219 Y106.217 E0.02109
G1 X12.712 Y107.168 E0.01787
G1 X12.273 Y108.088 E0.01689
G1 X11.846 Y109.091 E0.01805
G1 X11.494 Y110.048 E0.01690
G1 X11.187 Y111.017 E0.01685
G1 X10.948 Y111.925 E0.01555
G1 X10.752 Y112.845 E0.01558
G1 X10.625 Y113.604 E0.01276
G1 X10.531 Y114.365 E0.01270
G1 X10.456 Y115.407 E0.01730
G1 X10.477 Y116.875 E0.02433
G1 X10.757 Y117.821 E0.01636
G1 X11.233 Y118.629 E0.01553
G1 X12.001 Y119.422 E0.01829
G1 X12.910 Y119.992 E0.01778
G1 X14.126 Y120.322 E0.02087
G1 X15.762 Y120.322 E0.02711
G1 X16.768 Y120.111 E0.01703
G1 X17.710 Y119.631 E0.01752
G1 X18.637 Y118.735 E0.02136
G1 X18.476 Y118.337 F10800.000
G1 F1200.000
G1 X18.805 Y117.780 E0.01071
G1 X19.042 Y117.135 E0.01138
G1 X19.206 Y115.151 E0.03299
G1 X19.328 Y114.370 E0.01310
G1 X19.450 Y113.818 E0.00938
G1 X19.713 Y112.930 E0.01535
G1 X19.947 Y112.285 E0.01136
G1 X20.462 Y111.142 E0.02078
G1 X20.873 Y110.369 E0.01450
G1 X21.178 Y109.859 E0.00985
G1 X21.764 Y108.965 E0.01770
G1 X22.321 Y108.208 E0.01558
G1 X22.873 Y107.526 E0.01453
G1 X23.436 Y106.885 E0.01414
G1 X24.116 Y106.174 E0.01631
G1 X24.798 Y105.522 E0.01563
G1 X25.510 Y104.890 E0.01577
G1 X26.400 Y104.175 E0.01892
G1 X26.931 Y103.778 E0.01098
G1 X27.667 Y103.270 E0.01482
G1 X28.529 Y102.727 E0.01687
G1 X29.309 Y102.283 E0.01488
G1 X30.239 Y101.810 E0.01729
G1 X30.769 Y101.570 E0.00962
G1 X31.838 Y101.140 E0.01910
G1 X32.534 Y100.903 E0.01219
G1 X33.281 Y100.689 E0.01287
G1 X33.852 Y100.556 E0.00972
G1 X34.566 Y100.422 E0.01203
G1 X35.548 Y100.311 E0.01639
G1 X36.092 Y100.283 E0.00901
G1 X213.908 Y100.283 E2.94631
G1 X214.452 Y100.311 E0.00901
G1 X215.434 Y100.422 E0.01639
G1 X216.148 Y100.556 E0.01203
G1 X216.719 Y100.689 E0.00972
G1 X217.466 Y100.903 E0.01287
G1 X218.162 Y101.140 E0.01219
G1 X219.231 Y101.570 E0.01910
G1 X219.761 Y101.810 E0.00962
G1 X220.691 Y102.283 E0.01729
G1 X221.471 Y102.727 E0.01488
G1 X222.333 Y103.270 E0.01687
G1 X223.069 Y103.778 E0.01482
G1 X223.600 Y104.175 E0.01098
G1 X224.490 Y104.890 E0.01892
G1 X225.202 Y105.522 E0.01577
G1 X225.884 Y106.174 E0.01563
G1 X226.564 Y106.885 E0.01631
G1 X227.127 Y107.526 E0.01414
G1 X227.679 Y108.208 E0.01453
G1 X228.236 Y108.965 E0.01558
G1 X228.822 Y109.859 E0.01770
G1 X229.127 Y110.369 E0.00985
G1 X229.538 Y111.142 E0.01450
G1 X230.053 Y112.285 E0.02078
G1 X230.287 Y112.930 E0.01136
G1 X230.550 Y113.818 E0.01535
G1 X230.672 Y114.370 E0.00938
G1 X230.794 Y115.151 E0.01310
G1 X230.958 Y117.135 E0.03299
G1 X231.198 Y117.787 E0.01150
G1 X231.530 Y118.337 E0.01064
G1 X231.919 Y118.735 F10800.000
G1 F1200.000
G1 X232.461 Y119.264 E0.01254
G1 X233.411 Y119.750 E0.01767
G1 X234.076 Y119.905 E0.01131
G1 X236.150 Y119.876 E0.03438
G1 X237.048 Y119.573 E0.01570
G1 X237.778 Y119.090 E0.01450
G1 X238.463 Y118.374 E0.01642
G1 X238.933 Y117.528 E0.01604
G1 X239.164 Y116.491 E0.01761
G1 X239.146 Y115.418 E0.01778
G1 X239.083 Y114.504 E0.01517
G1 X238.984 Y113.682 E0.01373
G1 X238.845 Y112.857 E0.01385
G1 X238.660 Y111.997 E0.01457
G1 X238.435 Y111.144 E0.01463
G1 X238.144 Y110.220 E0.01605
G1 X237.828 Y109.355 E0.01526
G1 X237.364 Y108.254 E0.01980
G1 X236.954 Y107.391 E0.01582
G1 X236.441 Y106.424 E0.01814
G1 X235.825 Y105.381 E0.02007
G1 X235.048 Y104.205 E0.02335
G1 X234.223 Y103.093 E0.02295
G1 X233.550 Y102.257 E0.01779
G1 X232.725 Y101.311 E0.02079
G1 X231.687 Y100.228 E0.02486
G1 X230.836 Y99.413 E0.01952
G1 X229.923 Y98.601 E0.02025
G1 X228.818 Y97.704 E0.02358
G1 X227.801 Y96.948 E0.02099
G1 X226.749 Y96.230 E0.02111
G1 X225.768 Y95.614 E0.01920
G1 X224.539 Y94.917 E0.02340
G1 X223.464 Y94.372 E0.01998
G1 X222.383 Y93.880 E0.01967
G1 X221.190 Y93.400 E0.02131
G1 X219.864 Y92.949 E0.02320
G1 X218.805 Y92.647 E0.01825
G1 X217.708 Y92.393 E0.01865
G1 X216.757 Y92.219 E0.01603
G1 X215.842 Y92.094 E0.01529
G1 X214.965 Y92.016 E0.01459
G1 X214.170 Y91.978 E0.01319
G1 X35.994 Y91.975 E2.95226
G1 X35.032 Y92.016 E0.01595
G1 X34.051 Y92.107 E0.01632
G1 X33.086 Y92.244 E0.01615
G1 X32.087 Y92.436 E0.01685
G1 X31.092 Y92.674 E0.01695
G1 X30.088 Y92.964 E0.01732
G1 X28.833 Y93.391 E0.02197
G1 X27.678 Y93.853 E0.02061
G1 X26.546 Y94.367 E0.02061
G1 X25.454 Y94.920 E0.02027
G1 X24.271 Y95.590 E0.02253
G1 X23.271 Y96.217 E0.01957
G1 X22.219 Y96.934 E0.02110
G1 X21.182 Y97.704 E0.02139
G1 X20.077 Y98.601 E0.02358
G1 X19.158 Y99.419 E0.02039
G1 X18.265 Y100.277 E0.02052
G1 X17.288 Y101.297 E0.02340
G1 X16.456 Y102.249 E0.02095
G1 X15.679 Y103.216 E0.02056
