; generated by PrusaSlicer 2.2.0 on 2020-07-04 at 00:59:19 UTC

; 

; external perimeters extrusion width = 0.45mm
; perimeters extrusion width = 0.45mm
; infill extrusion width = 0.45mm
; solid infill extrusion width = 0.45mm
; top infill extrusion width = 0.40mm
; first layer extrusion width = 0.42mm

M73 P0 R114
M73 Q0 S114
M201 X1000 Y1000 Z200 E5000 ; sets maximum accelerations, mm/sec^2
M203 X200 Y200 Z12 E120 ; sets maximum feedrates, mm/sec
M204 P1250 R1250 T1250 ; sets acceleration (P, T) and retract acceleration (R), mm/sec^2
M205 X8.00 Y8.00 Z0.40 E4.50 ; sets the jerk limits, mm/sec
M205 S0 T0 ; sets the minimum extruding and travel feed rate, mm/sec
M107
M862.3 P "MK3S" ; printer model check
M862.1 P0.4 ; nozzle diameter check
M115 U3.9.0 ; tell printer latest fw version
G90 ; use absolute coordinates
M83 ; extruder relative mode
M104 S215 ; set extruder temp
M140 S60 ; set bed temp
M190 S60 ; wait for bed temp
M109 S215 ; wait for extruder temp
G28 W ; home all without mesh bed level
G80 ; mesh bed leveling
G1 Y-3.0 F1000.0 ; go outside print area
G92 E0.0
G1 X60.0 E9.0 F1000.0 ; intro line
M73 Q0 S114
M73 P0 R114
G1 X100.0 E12.5 F1000.0 ; intro line
G92 E0.0
M221 S95
G21 ; set units to millimeters
G90 ; use absolute coordinates
M83 ; use relative distances for extrusion
M900 K0.06 ; Filament gcode LA 1.5
M900 K30 ; Filament gcode LA 1.0
;BEFORE_LAYER_CHANGE
G92 E0.0
;0.15


G1 E-0.80000 F2100.00000
G1 Z0.600 F10800.000
;AFTER_LAYER_CHANGE
;0.15
G1 X12.506 Y117.271
G1 Z0.150
G1 E0.80000 F2100.00000
M204 S1000
G1 F1200.000
G1 X12.242 Y116.467 E0.02048
G1 X12.280 Y114.865 E0.03875
G1 X12.454 Y113.456 E0.03433
G1 X12.935 Y111.390 E0.05130
G1 X13.663 Y109.354 E0.05230
G1 X14.591 Y107.417 E0.05194
G1 X16.244 Y104.761 E0.07565
G1 X17.218 Y103.502 E0.03850
G1 X18.799 Y101.705 E0.05789
G1 X20.678 Y99.897 E0.06305
G1 X22.408 Y98.502 E0.05376
G1 X24.544 Y97.037 E0.06265
G1 X26.421 Y95.965 E0.05227
G1 X28.746 Y94.906 E0.06179
G1 X30.033 Y94.439 E0.03311
G1 X31.939 Y93.887 E0.04799
G1 X33.945 Y93.513 E0.04934
G1 X36.483 Y93.354 E0.06152
G1 X178.152 Y93.344 E3.42624
G1 X214.361 Y93.368 E0.87570
G1 X216.059 Y93.514 E0.04123
G1 X218.027 Y93.879 E0.04841
G1 X219.945 Y94.433 E0.04829
G1 X221.209 Y94.888 E0.03248
G1 X222.678 Y95.528 E0.03875
G1 X224.309 Y96.379 E0.04450
G1 X225.479 Y97.051 E0.03261
G1 X227.628 Y98.529 E0.06310
G1 X229.322 Y99.897 E0.05265
G1 X231.167 Y101.670 E0.06187
G1 X232.119 Y102.709 E0.03408
G1 X233.693 Y104.670 E0.06083
G1 X234.886 Y106.491 E0.05265
G1 X235.623 Y107.822 E0.03679
G1 X236.485 Y109.713 E0.05026
G1 X237.025 Y111.260 E0.03963
G1 X237.371 Y112.585 E0.03312
G1 X237.688 Y114.474 E0.04633
G1 X237.779 Y116.211 E0.04205
G1 X237.611 Y117.021 E0.02003
G1 X237.257 Y117.629 E0.01702
G1 X236.738 Y118.110 E0.01711
G1 X236.104 Y118.417 E0.01702
G1 X235.409 Y118.525 E0.01702
G1 X14.600 Y118.525 E5.34025
G1 X13.767 Y118.372 E0.02048
G1 X13.037 Y117.936 E0.02057
G1 X12.543 Y117.318 E0.01912
G1 F8640.000
G1 X12.242 Y116.467 E-0.20857
G1 X12.280 Y114.865 E-0.36999
G1 X12.376 Y114.085 E-0.18144
G1 E-0.04000 F2100.00000
G1 Z0.750 F10800.000
G1 X14.843 Y115.766
G1 Z0.150
G1 E0.80000 F2100.00000
G1 F1200.000
G1 X14.896 Y114.868 E0.02177
G1 X14.976 Y114.220 E0.01578
G1 X15.071 Y113.654 E0.01389
G1 X15.244 Y112.854 E0.01978
G1 X15.393 Y112.292 E0.01407
G1 X15.585 Y111.669 E0.01577
G1 X15.877 Y110.851 E0.02101
G1 X16.200 Y110.069 E0.02044
G1 X16.575 Y109.268 E0.02140
G1 X17.015 Y108.431 E0.02288
G1 X17.549 Y107.521 E0.02549
G1 X18.243 Y106.470 E0.03048
G1 X18.864 Y105.630 E0.02526
G1 X19.468 Y104.876 E0.02336
G1 X20.197 Y104.036 E0.02689
G1 X21.140 Y103.053 E0.03294
G1 X21.847 Y102.375 E0.02370
G1 X22.643 Y101.662 E0.02584
G1 X23.654 Y100.842 E0.03149
G1 X24.539 Y100.188 E0.02661
G1 X25.463 Y99.558 E0.02706
G1 X26.257 Y99.058 E0.02269
G1 X27.371 Y98.425 E0.03099
G1 X28.312 Y97.951 E0.02547
G1 X29.176 Y97.559 E0.02295
G1 X30.162 Y97.160 E0.02573
G1 X31.373 Y96.749 E0.03091
G1 X32.155 Y96.526 E0.01967
G1 X32.917 Y96.345 E0.01893
G1 X33.749 Y96.185 E0.02050
G1 X34.524 Y96.074 E0.01892
G1 X35.373 Y95.998 E0.02063
G1 X36.068 Y95.971 E0.01681
G1 X178.070 Y95.967 E3.43432
G1 X214.034 Y95.972 E0.86978
G1 X214.627 Y95.998 E0.01435
G1 X215.387 Y96.064 E0.01846
G1 X216.151 Y96.168 E0.01864
G1 X216.845 Y96.296 E0.01708
G1 X217.960 Y96.557 E0.02769
G1 X218.627 Y96.749 E0.01680
G1 X219.619 Y97.081 E0.02529
G1 X220.825 Y97.559 E0.03137
G1 X221.688 Y97.951 E0.02293
G1 X222.629 Y98.425 E0.02547
G1 X223.743 Y99.057 E0.03098
G1 X224.655 Y99.635 E0.02612
G1 X225.461 Y100.187 E0.02361
G1 X226.537 Y100.994 E0.03254
G1 X227.357 Y101.662 E0.02558
G1 X228.153 Y102.375 E0.02584
G1 X228.861 Y103.053 E0.02371
G1 X229.639 Y103.857 E0.02706
G1 X230.532 Y104.876 E0.03277
G1 X231.136 Y105.630 E0.02335
G1 X231.757 Y106.470 E0.02526
G1 X232.451 Y107.521 E0.03048
G1 X232.985 Y108.431 E0.02550
G1 X233.320 Y109.062 E0.01729
G1 X233.801 Y110.071 E0.02702
G1 X234.085 Y110.751 E0.01784
G1 X234.337 Y111.439 E0.01771
G1 X234.581 Y112.201 E0.01936
G1 X234.776 Y112.937 E0.01841
G1 X234.929 Y113.653 E0.01771
G1 X235.024 Y114.220 E0.01390
G1 X235.104 Y114.868 E0.01578
G1 X235.157 Y115.766 E0.02177
G1 X235.012 Y115.747 E0.00355
G1 X234.849 Y115.768 E0.00396
G1 X234.790 Y114.856 E0.02211
G1 X234.720 Y114.264 E0.01441
G1 X234.571 Y113.453 E0.01996
G1 X234.322 Y112.414 E0.02584
G1 X234.034 Y111.513 E0.02288
G1 X233.776 Y110.805 E0.01821
G1 X233.405 Y109.951 E0.02252
G1 X233.039 Y109.184 E0.02055
G1 X232.792 Y108.721 E0.01270
G1 X232.054 Y107.470 E0.03512
G1 X231.518 Y106.669 E0.02330
G1 X230.846 Y105.757 E0.02740
G1 X230.192 Y104.949 E0.02514
G1 X229.542 Y104.208 E0.02384
G1 X228.713 Y103.339 E0.02904
G1 X227.920 Y102.583 E0.02651
G1 X227.083 Y101.838 E0.02709
G1 X226.311 Y101.208 E0.02409
G1 X225.440 Y100.551 E0.02639
G1 X224.601 Y99.968 E0.02472
G1 X223.376 Y99.200 E0.03497
G1 X222.523 Y98.720 E0.02366
G1 X221.458 Y98.182 E0.02886
G1 X220.484 Y97.748 E0.02580
G1 X219.516 Y97.370 E0.02514
G1 X218.653 Y97.078 E0.02202
G1 X217.720 Y96.811 E0.02348
G1 X217.000 Y96.645 E0.01787
G1 X215.992 Y96.454 E0.02480
G1 X214.821 Y96.324 E0.02850
G1 X214.016 Y96.278 E0.01950
G1 X35.984 Y96.278 E4.30567
G1 X35.179 Y96.324 E0.01950
G1 X34.008 Y96.454 E0.02850
G1 X33.000 Y96.645 E0.02480
G1 X32.280 Y96.811 E0.01787
G1 X31.347 Y97.078 E0.02348
G1 X30.484 Y97.370 E0.02202
G1 X29.516 Y97.748 E0.02514
G1 X28.542 Y98.182 E0.02580
G1 X27.477 Y98.720 E0.02886
G1 X26.624 Y99.200 E0.02366
G1 X25.399 Y99.968 E0.03497
G1 X24.560 Y100.551 E0.02472
G1 X23.689 Y101.208 E0.02639
G1 X22.917 Y101.838 E0.02409
G1 X22.080 Y102.583 E0.02709
G1 X21.287 Y103.339 E0.02651
G1 X20.458 Y104.208 E0.02904
G1 X19.808 Y104.949 E0.02384
G1 X19.154 Y105.757 E0.02514
G1 X18.482 Y106.669 E0.02740
G1 X17.946 Y107.470 E0.02330
G1 X17.208 Y108.721 E0.03512
G1 X16.961 Y109.184 E0.01270
G1 X16.595 Y109.951 E0.02055
G1 X16.224 Y110.805 E0.02252
G1 X15.966 Y111.513 E0.01821
G1 X15.678 Y112.414 E0.02288
G1 X15.429 Y113.453 E0.02584
G1 X15.280 Y114.264 E0.01996
G1 X15.210 Y114.856 E0.01441
G1 X15.151 Y115.768 E0.02211
G1 X14.988 Y115.747 E0.00396
G1 X14.902 Y115.759 E0.00210
M106 S255
;BEFORE_LAYER_CHANGE
G92 E0.0
;0.3


G1 F8640.000
G1 X14.896 Y114.868 E-0.20571
G1 X14.976 Y114.220 E-0.15066
G1 X15.071 Y113.654 E-0.13259
G1 X15.244 Y112.854 E-0.18883
G1 X15.335 Y112.510 E-0.08220
G1 E-0.04000 F2100.00000
G1 Z0.750 F10800.000
;AFTER_LAYER_CHANGE
;0.3
G1 X13.037 Y117.936
G1 Z0.300
G1 E0.80000 F2100.00000
G1 F3000.000
G1 X12.506 Y117.271 E0.02057
G1 X12.242 Y116.467 E0.02048
G1 X12.280 Y114.865 E0.03875
G1 X12.454 Y113.456 E0.03433
G1 X12.935 Y111.390 E0.05130
G1 X13.663 Y109.354 E0.05230
G1 X14.591 Y107.417 E0.05194
G1 X16.244 Y104.761 E0.07565
G1 X17.218 Y103.502 E0.03850
G1 X18.799 Y101.705 E0.05789
G1 X20.678 Y99.897 E0.06305
G1 X22.408 Y98.502 E0.05376
G1 X24.544 Y97.037 E0.06265
G1 X26.421 Y95.965 E0.05227
G1 X28.746 Y94.906 E0.06179
G1 X30.033 Y94.439 E0.03311
G1 X31.939 Y93.887 E0.04799
G1 X33.945 Y93.513 E0.04934
G1 X36.483 Y93.354 E0.06152
G1 X178.152 Y93.344 E3.42624
G1 X214.361 Y93.368 E0.87570
G1 X216.059 Y93.514 E0.04123
G1 X218.027 Y93.879 E0.04841
G1 X219.945 Y94.433 E0.04829
G1 X221.209 Y94.888 E0.03248
G1 X222.678 Y95.528 E0.03875
G1 X224.309 Y96.379 E0.04450
G1 X225.479 Y97.051 E0.03261
G1 X227.628 Y98.529 E0.06310
G1 X229.322 Y99.897 E0.05265
G1 X231.167 Y101.670 E0.06187
G1 X232.119 Y102.709 E0.03408
G1 X233.693 Y104.670 E0.06083
G1 X234.886 Y106.491 E0.05265
G1 X235.623 Y107.822 E0.03679
G1 X236.485 Y109.713 E0.05026
G1 X237.025 Y111.260 E0.03963
G1 X237.371 Y112.585 E0.03312
G1 X237.688 Y114.474 E0.04633
G1 X237.779 Y116.211 E0.04205
G1 X237.611 Y117.021 E0.02003
G1 X237.257 Y117.629 E0.01702
G1 X236.738 Y118.110 E0.01711
G1 X236.104 Y118.417 E0.01702
G1 X235.409 Y118.525 E0.01702
G1 X14.600 Y118.525 E5.34025
M73 Q0 S113
M73 P0 R113
G1 X13.767 Y118.372 E0.02048
G1 X13.088 Y117.967 E0.01912
G1 F8640.000
G1 X12.506 Y117.271 E-0.20943
G1 X12.242 Y116.467 E-0.19553
G1 X12.279 Y114.929 E-0.35503
G1 E-0.04000 F2100.00000
G1 Z0.900 F10800.000
G1 X14.851 Y115.912
G1 Z0.300
G1 E0.80000 F2100.00000
M204 S800
G1 F1500.000
G1 X14.932 Y114.646 E0.03305
G1 X15.049 Y113.842 E0.02118
G1 X15.223 Y112.991 E0.02263
G1 X15.469 Y112.074 E0.02473
G1 X15.754 Y111.216 E0.02356
G1 X16.058 Y110.432 E0.02190
G1 X16.442 Y109.571 E0.02458
G1 X16.954 Y108.566 E0.02938
G1 X17.452 Y107.692 E0.02623
G1 X18.331 Y106.351 E0.04176
G1 X19.327 Y105.065 E0.04239
G1 X20.044 Y104.219 E0.02890
G1 X20.533 Y103.686 E0.01883
G1 X21.322 Y102.890 E0.02920
G1 X22.533 Y101.762 E0.04313
G1 X23.821 Y100.721 E0.04315
G1 X24.901 Y99.951 E0.03456
G1 X26.102 Y99.158 E0.03750
G1 X27.518 Y98.353 E0.04245
G1 X29.002 Y97.647 E0.04282
G1 X29.964 Y97.244 E0.02718
G1 X30.614 Y97.009 E0.01800
G1 X31.636 Y96.683 E0.02794
G1 X32.522 Y96.447 E0.02390
G1 X33.441 Y96.252 E0.02448
G1 X34.683 Y96.068 E0.03272
G1 X35.555 Y95.999 E0.02277
G1 X36.279 Y95.980 E0.01888
G1 X72.131 Y95.969 E0.93416
G1 X131.476 Y95.987 E1.54628
G1 X177.868 Y95.969 E1.20878
G1 X213.721 Y95.980 E0.93416
G1 X214.445 Y95.999 E0.01888
G1 X215.318 Y96.068 E0.02282
G1 X216.062 Y96.166 E0.01955
G1 X217.269 Y96.398 E0.03203
G1 X218.363 Y96.683 E0.02944
G1 X219.386 Y97.009 E0.02798
G1 X220.036 Y97.244 E0.01800
G1 X220.998 Y97.647 E0.02718
G1 X222.482 Y98.353 E0.04282
G1 X223.898 Y99.158 E0.04245
G1 X225.099 Y99.951 E0.03750
G1 X226.179 Y100.721 E0.03456
G1 X227.467 Y101.762 E0.04315
G1 X228.678 Y102.890 E0.04313
G1 X229.467 Y103.686 E0.02920
G1 X229.956 Y104.219 E0.01883
G1 X230.674 Y105.066 E0.02894
G1 X231.668 Y106.351 E0.04232
G1 X232.547 Y107.690 E0.04175
G1 X233.324 Y109.093 E0.04179
G1 X233.864 Y110.246 E0.03316
G1 X234.063 Y110.728 E0.01360
G1 X234.246 Y111.214 E0.01351
G1 X234.611 Y112.347 E0.03103
G1 X234.777 Y112.990 E0.01729
G1 X234.951 Y113.841 E0.02263
G1 X235.094 Y114.891 E0.02761
G1 X235.149 Y115.912 E0.02666
G1 X234.908 Y115.912 E0.00628
G1 X234.865 Y115.086 E0.02157
G1 X234.801 Y114.421 E0.01740
G1 X234.700 Y113.819 E0.01589
G1 X234.435 Y112.602 E0.03247
G1 X234.224 Y111.908 E0.01890
G1 X233.873 Y110.896 E0.02789
G1 X233.616 Y110.284 E0.01730
G1 X232.958 Y108.904 E0.03982
G1 X232.566 Y108.197 E0.02108
G1 X231.746 Y106.898 E0.04003
G1 X230.862 Y105.683 E0.03915
G1 X230.091 Y104.739 E0.03176
G1 X229.303 Y103.863 E0.03070
G1 X228.767 Y103.310 E0.02006
G1 X227.989 Y102.569 E0.02800
G1 X227.265 Y101.918 E0.02537
G1 X226.042 Y100.925 E0.04106
G1 X224.948 Y100.132 E0.03520
G1 X223.724 Y99.340 E0.03799
G1 X222.368 Y98.574 E0.04057
G1 X221.384 Y98.083 E0.02865
G1 X220.699 Y97.776 E0.01957
G1 X219.337 Y97.244 E0.03810
G1 X218.666 Y97.020 E0.01843
G1 X217.687 Y96.742 E0.02652
G1 X216.553 Y96.499 E0.03020
G1 X215.747 Y96.360 E0.02133
G1 X215.076 Y96.290 E0.01756
G1 X214.121 Y96.224 E0.02495
G1 X177.621 Y96.218 E0.95103
G1 X36.964 Y96.219 E3.66495
G1 X35.878 Y96.224 E0.02828
G1 X34.924 Y96.290 E0.02493
G1 X34.253 Y96.360 E0.01756
G1 X33.447 Y96.498 E0.02132
G1 X32.462 Y96.706 E0.02624
G1 X31.039 Y97.116 E0.03857
G1 X30.102 Y97.450 E0.02593
G1 X29.300 Y97.776 E0.02257
G1 X28.615 Y98.083 E0.01954
G1 X27.475 Y98.655 E0.03325
G1 X26.170 Y99.406 E0.03921
G1 X25.212 Y100.023 E0.02971
G1 X24.384 Y100.605 E0.02636
G1 X23.461 Y101.314 E0.03033
G1 X22.864 Y101.806 E0.02015
G1 X22.012 Y102.569 E0.02982
G1 X21.232 Y103.311 E0.02804
G1 X20.273 Y104.324 E0.03634
G1 X19.771 Y104.901 E0.01992
G1 X19.138 Y105.682 E0.02620
G1 X18.442 Y106.624 E0.03052
G1 X18.023 Y107.244 E0.01949
G1 X17.434 Y108.198 E0.02921
G1 X17.041 Y108.905 E0.02107
G1 X16.654 Y109.691 E0.02283
G1 X16.234 Y110.626 E0.02669
G1 X15.980 Y111.306 E0.01892
G1 X15.596 Y112.489 E0.03241
G1 X15.423 Y113.212 E0.01939
G1 X15.200 Y114.419 E0.03197
G1 X15.135 Y115.086 E0.01745
G1 X15.092 Y115.912 E0.02157
G1 X14.911 Y115.912 E0.00471
M204 S1000
;BEFORE_LAYER_CHANGE
G92 E0.0
;0.45


G1 F8640.000
G1 X14.932 Y114.646 E-0.29237
G1 X15.049 Y113.842 E-0.18772
G1 X15.223 Y112.991 E-0.20055
G1 X15.312 Y112.659 E-0.07937
G1 E-0.04000 F2100.00000
G1 Z0.900 F10800.000
;AFTER_LAYER_CHANGE
;0.45
G1 X13.037 Y117.936
G1 Z0.450
G1 E0.80000 F2100.00000
G1 F3000.000
G1 X12.506 Y117.271 E0.02057
G1 X12.242 Y116.467 E0.02048
G1 X12.280 Y114.865 E0.03875
G1 X12.454 Y113.456 E0.03433
G1 X12.935 Y111.390 E0.05130
G1 X13.663 Y109.354 E0.05230
G1 X14.591 Y107.417 E0.05194
G1 X16.244 Y104.761 E0.07565
G1 X17.218 Y103.502 E0.03850
G1 X18.799 Y101.705 E0.05789
G1 X20.678 Y99.897 E0.06305
G1 X22.408 Y98.502 E0.05376
G1 X24.544 Y97.037 E0.06265
G1 X26.421 Y95.965 E0.05227
G1 X28.746 Y94.906 E0.06179
G1 X30.033 Y94.439 E0.03311
G1 X31.939 Y93.887 E0.04799
G1 X33.945 Y93.513 E0.04934
G1 X36.483 Y93.354 E0.06152
G1 X178.152 Y93.344 E3.42624
G1 X214.361 Y93.368 E0.87570
G1 X216.059 Y93.514 E0.04123
G1 X218.027 Y93.879 E0.04841
G1 X219.945 Y94.433 E0.04829
G1 X221.209 Y94.888 E0.03248
G1 X222.678 Y95.528 E0.03875
G1 X224.309 Y96.379 E0.04450
G1 X225.479 Y97.051 E0.03261
G1 X227.628 Y98.529 E0.06310
G1 X229.322 Y99.897 E0.05265
G1 X231.167 Y101.670 E0.06187
G1 X232.119 Y102.709 E0.03408
G1 X233.693 Y104.670 E0.06083
G1 X234.886 Y106.491 E0.05265
G1 X235.623 Y107.822 E0.03679
G1 X236.485 Y109.713 E0.05026
G1 X237.025 Y111.260 E0.03963
G1 X237.371 Y112.585 E0.03312
G1 X237.688 Y114.474 E0.04633
G1 X237.779 Y116.211 E0.04205
G1 X237.611 Y117.021 E0.02003
G1 X237.257 Y117.629 E0.01702
G1 X236.738 Y118.110 E0.01711
G1 X236.104 Y118.417 E0.01702
G1 X235.409 Y118.525 E0.01702
G1 X14.600 Y118.525 E5.34025
G1 X13.767 Y118.372 E0.02048
G1 X13.088 Y117.967 E0.01912
G1 F8640.000
G1 X12.506 Y117.271 E-0.20943
G1 X12.242 Y116.467 E-0.19553
G1 X12.279 Y114.929 E-0.35503
G1 E-0.04000 F2100.00000
G1 Z1.050 F10800.000
G1 X14.845 Y115.912
G1 Z0.450
G1 E0.80000 F2100.00000
M204 S800
G1 F1500.000
G1 X14.901 Y114.848 E0.02779
G1 X14.968 Y114.268 E0.01520
G1 X15.188 Y113.112 E0.03066
G1 X15.300 Y112.629 E0.01291
G1 X15.466 Y112.048 E0.01576
G1 X15.827 Y110.983 E0.02929
G1 X16.053 Y110.411 E0.01602
G1 X16.517 Y109.388 E0.02927
G1 X16.871 Y108.693 E0.02032
G1 X17.343 Y107.855 E0.02507
G1 X18.409 Y106.223 E0.05079
G1 X19.168 Y105.243 E0.03229
G1 X19.879 Y104.393 E0.02886
G1 X20.695 Y103.503 E0.03149
G1 X21.491 Y102.709 E0.02927
G1 X22.412 Y101.852 E0.03278
G1 X23.981 Y100.588 E0.05250
G1 X24.804 Y100.000 E0.02637
G1 X25.937 Y99.247 E0.03544
G1 X27.660 Y98.266 E0.05165
G1 X28.816 Y97.717 E0.03335
G1 X29.758 Y97.315 E0.02669
G1 X30.847 Y96.922 E0.03014
G1 X31.799 Y96.625 E0.02601
G1 X32.541 Y96.429 E0.02000
G1 X33.728 Y96.189 E0.03156
G1 X34.560 Y96.071 E0.02188
G1 X35.737 Y95.979 E0.03076
G1 X71.849 Y95.957 E0.94092
G1 X98.890 Y95.976 E0.70459
G1 X151.110 Y95.976 E1.36061
G1 X178.151 Y95.957 E0.70459
G1 X193.098 Y95.974 E0.38944
G1 X213.510 Y95.967 E0.53186
G1 X214.330 Y95.983 E0.02138
G1 X215.334 Y96.060 E0.02622
G1 X215.980 Y96.141 E0.01698
G1 X216.524 Y96.237 E0.01438
G1 X217.777 Y96.508 E0.03340
G1 X219.155 Y96.923 E0.03749
G1 X220.241 Y97.315 E0.03009
G1 X221.548 Y97.884 E0.03716
G1 X222.340 Y98.266 E0.02289
G1 X224.063 Y99.247 E0.05167
G1 X224.855 Y99.767 E0.02468
